flaticon/sport/shoe.svg

<svg xmlns="http://www.w3.org/2000/svg" width="32" height="32" viewBox="0 0 24 24">
    <path d="M 23.929688 12.21875 C 23.929688 12.207031 23.929688 12.195312 23.925781 12.183594 C 23.886719 11.957031 23.839844 11.726562 23.773438 11.492188 C 23.742188 11.378906 23.695312 11.269531 23.65625 11.179688 L 22.65625 8.523438 C 22.519531 8.160156 22.199219 7.902344 21.8125 7.851562 C 21.429688 7.796875 21.050781 7.960938 20.820312 8.273438 C 20.335938 8.933594 19.574219 9.339844 18.792969 9.363281 L 17.152344 9.363281 L 15.621094 7.652344 L 15.554688 7.589844 C 15.09375 7.265625 14.515625 7.203125 14 7.425781 C 13.542969 7.621094 13.058594 7.910156 12.523438 8.25 L 12.199219 8.457031 C 12.148438 8.488281 12.105469 8.515625 12.054688 8.550781 C 11.882812 8.660156 11.703125 8.777344 11.515625 8.894531 C 11.488281 8.910156 11.453125 8.929688 11.425781 8.949219 C 11.277344 9.042969 11.128906 9.136719 10.972656 9.230469 C 10.890625 9.28125 10.804688 9.328125 10.722656 9.378906 C 10.609375 9.445312 10.5 9.511719 10.382812 9.574219 C 10.28125 9.632812 10.175781 9.691406 10.070312 9.75 C 9.964844 9.808594 9.859375 9.867188 9.753906 9.921875 C 9.636719 9.980469 9.519531 10.039062 9.402344 10.097656 C 9.292969 10.152344 9.183594 10.207031 9.070312 10.257812 C 8.953125 10.316406 8.828125 10.371094 8.703125 10.425781 C 8.585938 10.480469 8.460938 10.53125 8.335938 10.582031 C 8.214844 10.628906 8.089844 10.679688 7.964844 10.726562 C 7.828125 10.78125 7.6875 10.828125 7.542969 10.875 C 7.421875 10.917969 7.300781 10.960938 7.175781 11 C 6.925781 11.074219 6.675781 11.148438 6.414062 11.214844 C 5.988281 11.320312 5.546875 11.429688 5.132812 11.429688 L 1.953125 11.429688 C 1.121094 11.429688 0.425781 11.878906 0.140625 12.597656 C -0.203125 13.453125 0.101562 14.4375 0.863281 14.945312 L 0.914062 14.980469 C 2.855469 16.261719 5.113281 16.820312 7.441406 16.605469 C 9.121094 16.449219 11.503906 16.191406 13.3125 15.871094 C 14.371094 15.683594 15.421875 15.710938 16.4375 15.949219 L 18.582031 16.457031 L 18.679688 16.488281 C 19.148438 16.636719 19.632812 16.707031 20.109375 16.707031 C 21.207031 16.707031 22.265625 16.328125 22.984375 15.628906 C 23.832031 14.808594 24.15625 13.617188 23.929688 12.21875 Z M 9.074219 11.167969 C 9.160156 11.132812 9.242188 11.09375 9.324219 11.054688 C 9.523438 10.964844 9.714844 10.871094 9.902344 10.777344 C 9.972656 10.742188 10.039062 10.707031 10.105469 10.671875 C 10.253906 10.59375 10.402344 10.515625 10.546875 10.433594 C 10.613281 10.398438 10.683594 10.359375 10.75 10.320312 C 10.933594 10.214844 11.113281 10.113281 11.285156 10.007812 C 11.328125 9.984375 11.367188 9.957031 11.40625 9.933594 C 11.566406 9.835938 11.722656 9.738281 11.875 9.644531 C 11.910156 9.621094 11.945312 9.601562 11.980469 9.578125 C 12.132812 9.480469 12.28125 9.386719 12.425781 9.292969 L 13.539062 10.339844 C 13.855469 10.636719 13.835938 11.019531 13.71875 11.273438 C 13.59375 11.53125 13.3125 11.785156 12.882812 11.734375 L 8.917969 11.238281 C 8.972656 11.214844 9.023438 11.191406 9.074219 11.167969 Z M 1.320312 14.257812 C 1.007812 14.046875 0.832031 13.695312 0.832031 13.332031 C 0.832031 13.332031 0.835938 13.332031 0.839844 13.332031 C 0.929688 13.332031 1.019531 13.304688 1.09375 13.246094 C 1.273438 13.101562 1.304688 12.84375 1.164062 12.664062 C 1.148438 12.640625 1.132812 12.617188 1.117188 12.59375 C 1.320312 12.382812 1.609375 12.257812 1.953125 12.257812 L 5.132812 12.257812 C 5.648438 12.257812 6.160156 12.128906 6.613281 12.019531 C 6.808594 11.96875 6.996094 11.910156 7.183594 11.855469 L 12.78125 12.554688 C 12.851562 12.5625 12.921875 12.566406 12.996094 12.566406 C 13.625 12.566406 14.1875 12.214844 14.464844 11.628906 C 14.773438 10.972656 14.632812 10.234375 14.105469 9.738281 L 13.148438 8.835938 C 13.578125 8.566406 13.972656 8.335938 14.328125 8.183594 C 14.5625 8.082031 14.824219 8.105469 15.039062 8.242188 L 16.785156 10.1875 L 18.804688 10.1875 C 19.851562 10.160156 20.855469 9.625 21.488281 8.761719 C 21.5625 8.660156 21.664062 8.664062 21.703125 8.667969 C 21.742188 8.675781 21.839844 8.699219 21.882812 8.816406 L 22.890625 11.488281 C 22.921875 11.5625 22.957031 11.636719 22.976562 11.71875 C 23.03125 11.910156 23.074219 12.09375 23.105469 12.273438 L 23.097656 12.316406 C 23.074219 12.429688 23.097656 12.539062 23.15625 12.628906 C 23.175781 12.816406 23.183594 12.996094 23.179688 13.167969 C 23.003906 13.109375 22.804688 13.167969 22.699219 13.328125 C 22.636719 13.425781 22.566406 13.519531 22.488281 13.601562 C 22.335938 13.769531 22.347656 14.03125 22.515625 14.183594 C 22.59375 14.257812 22.695312 14.292969 22.792969 14.292969 C 22.84375 14.292969 22.894531 14.28125 22.941406 14.261719 C 22.8125 14.554688 22.640625 14.816406 22.410156 15.035156 C 21.601562 15.820312 20.171875 16.09375 18.933594 15.699219 L 16.628906 15.144531 C 15.996094 14.996094 15.351562 14.921875 14.699219 14.921875 C 14.195312 14.921875 13.683594 14.964844 13.171875 15.058594 C 11.390625 15.375 9.03125 15.625 7.367188 15.78125 C 5.222656 15.984375 3.152344 15.464844 1.371094 14.289062 Z M 1.320312 14.257812"/>
    <path d="M8.601562 14.152344C8.464844 14.171875 8.328125 14.1875 8.195312 14.203125 7.96875 14.226562 7.804688 14.433594 7.828125 14.660156 7.851562 14.871094 8.03125 15.027344 8.238281 15.027344 8.253906 15.027344 8.269531 15.027344 8.285156 15.023438 8.425781 15.007812 8.5625 14.992188 8.703125 14.972656 8.929688 14.945312 9.089844 14.738281 9.0625 14.511719 9.03125 14.285156 8.828125 14.121094 8.601562 14.152344zM6.992188 14.292969C6.859375 14.296875 6.726562 14.300781 6.585938 14.300781 6.359375 14.300781 6.171875 14.488281 6.175781 14.71875 6.175781 14.945312 6.359375 15.128906 6.589844 15.128906 6.734375 15.128906 6.875 15.125 7.011719 15.121094 7.242188 15.113281 7.421875 14.925781 7.414062 14.695312 7.410156 14.46875 7.21875 14.289062 6.992188 14.292969zM5.378906 14.257812C5.246094 14.246094 5.113281 14.234375 4.980469 14.21875 4.753906 14.195312 4.550781 14.359375 4.523438 14.585938 4.5 14.816406 4.664062 15.019531 4.890625 15.042969 5.035156 15.058594 5.175781 15.070312 5.316406 15.082031 5.328125 15.082031 5.339844 15.082031 5.347656 15.082031 5.5625 15.082031 5.742188 14.917969 5.761719 14.703125 5.777344 14.472656 5.609375 14.273438 5.378906 14.257812zM3.800781 14.03125C3.671875 14.003906 3.542969 13.96875 3.414062 13.9375 3.195312 13.878906 2.96875 14.007812 2.910156 14.230469 2.851562 14.449219 2.980469 14.675781 3.203125 14.734375 3.339844 14.773438 3.480469 14.808594 3.621094 14.839844 3.652344 14.84375 3.683594 14.847656 3.710938 14.847656 3.902344 14.847656 4.074219 14.714844 4.117188 14.523438 4.164062 14.300781 4.023438 14.078125 3.800781 14.03125zM10.226562 13.925781L9.820312 13.988281C9.59375 14.019531 9.4375 14.230469 9.46875 14.457031 9.5 14.660156 9.675781 14.808594 9.878906 14.808594 9.898438 14.808594 9.917969 14.808594 9.9375 14.804688L10.351562 14.746094C10.578125 14.710938 10.730469 14.5 10.699219 14.273438 10.664062 14.046875 10.453125 13.894531 10.226562 13.925781zM2.324219 13.539062C2.207031 13.484375 2.097656 13.425781 1.992188 13.363281 1.792969 13.246094 1.539062 13.308594 1.421875 13.507812 1.308594 13.703125 1.371094 13.957031 1.566406 14.074219 1.695312 14.148438 1.828125 14.21875 1.964844 14.285156 2.023438 14.3125 2.082031 14.328125 2.144531 14.328125 2.296875 14.328125 2.445312 14.242188 2.515625 14.09375 2.617188 13.886719 2.527344 13.640625 2.324219 13.539062zM21.628906 14.148438C21.515625 14.183594 21.398438 14.214844 21.277344 14.238281 21.054688 14.285156 20.910156 14.503906 20.953125 14.726562 20.992188 14.921875 21.167969 15.058594 21.359375 15.058594 21.386719 15.058594 21.414062 15.054688 21.441406 15.050781 21.597656 15.019531 21.75 14.980469 21.890625 14.933594 22.109375 14.859375 22.222656 14.625 22.152344 14.40625 22.078125 14.191406 21.847656 14.074219 21.628906 14.148438zM18.5625 14.097656C18.425781 14.074219 18.292969 14.046875 18.160156 14.019531 17.933594 13.972656 17.71875 14.121094 17.671875 14.34375 17.628906 14.570312 17.773438 14.789062 17.996094 14.832031 18.132812 14.859375 18.269531 14.886719 18.410156 14.910156 18.433594 14.917969 18.460938 14.917969 18.484375 14.917969 18.679688 14.917969 18.855469 14.78125 18.890625 14.582031 18.933594 14.355469 18.785156 14.140625 18.5625 14.097656zM11.878906 13.695312C11.738281 13.714844 11.601562 13.734375 11.460938 13.75 11.234375 13.78125 11.078125 13.992188 11.109375 14.21875 11.136719 14.425781 11.3125 14.574219 11.519531 14.574219 11.535156 14.574219 11.554688 14.574219 11.574219 14.570312 11.707031 14.550781 11.84375 14.535156 11.980469 14.519531 12.207031 14.488281 12.367188 14.285156 12.339844 14.058594 12.308594 13.832031 12.105469 13.664062 11.878906 13.695312zM20.144531 14.304688C20.015625 14.300781 19.882812 14.289062 19.753906 14.277344 19.515625 14.253906 19.324219 14.421875 19.300781 14.648438 19.277344 14.875 19.445312 15.078125 19.671875 15.101562 19.816406 15.113281 19.960938 15.125 20.105469 15.132812 20.113281 15.132812 20.117188 15.132812 20.125 15.132812 20.34375 15.132812 20.527344 14.957031 20.539062 14.738281 20.546875 14.507812 20.371094 14.316406 20.144531 14.304688zM16.945312 13.765625C16.804688 13.738281 16.667969 13.710938 16.535156 13.6875 16.308594 13.644531 16.09375 13.792969 16.050781 14.015625 16.007812 14.242188 16.15625 14.457031 16.382812 14.5 16.511719 14.523438 16.644531 14.550781 16.78125 14.578125 16.808594 14.585938 16.835938 14.585938 16.863281 14.585938 17.058594 14.585938 17.230469 14.453125 17.269531 14.253906 17.3125 14.03125 17.167969 13.8125 16.945312 13.765625zM15.253906 13.511719L15.128906 13.503906C15.027344 13.5 14.921875 13.5 14.820312 13.496094 14.582031 13.476562 14.402344 13.679688 14.402344 13.90625 14.398438 14.136719 14.582031 14.320312 14.808594 14.324219 14.90625 14.328125 15.003906 14.328125 15.101562 14.332031L15.203125 14.335938C15.210938 14.335938 15.21875 14.335938 15.226562 14.335938 15.445312 14.335938 15.625 14.167969 15.640625 13.949219 15.65625 13.722656 15.484375 13.527344 15.253906 13.511719zM13.546875 13.53125C13.40625 13.542969 13.265625 13.550781 13.128906 13.5625 12.898438 13.582031 12.730469 13.78125 12.75 14.007812 12.769531 14.226562 12.949219 14.390625 13.160156 14.390625 13.171875 14.390625 13.183594 14.390625 13.195312 14.386719 13.332031 14.375 13.464844 14.367188 13.601562 14.359375 13.828125 14.34375 14.003906 14.144531 13.988281 13.917969 13.972656 13.691406 13.785156 13.523438 13.546875 13.53125zM13.546875 13.53125"/>
</svg>

<svg xmlns="http://www.w3.org/2000/svg" width="32" height="32" viewBox="0 0 24 24">
    <path d="M23.93 12.219c0-.012 0-.024-.004-.035a6.68 6.68 0 0 0-.153-.692 2.387 2.387 0 0 0-.117-.312l-1-2.657a1.044 1.044 0 0 0-.843-.671 1.05 1.05 0 0 0-.993.421c-.484.66-1.246 1.067-2.027 1.09h-1.64l-1.532-1.71-.066-.063A1.585 1.585 0 0 0 14 7.426c-.457.195-.941.484-1.477.824l-.324.207a3.02 3.02 0 0 0-.144.094c-.172.11-.352.226-.54.344-.027.015-.062.035-.09.054-.148.094-.296.188-.452.281-.082.051-.168.098-.25.149-.114.066-.223.133-.34.195a22.381 22.381 0 0 1-.63.348l-.35.176c-.11.054-.22.109-.333.16a7.989 7.989 0 0 1-.367.168c-.117.054-.242.105-.367.156-.121.047-.246.098-.371.145a6.693 6.693 0 0 1-.422.148c-.121.043-.242.086-.367.125-.25.074-.5.148-.762.215-.426.105-.867.215-1.281.215h-3.18c-.832 0-1.527.449-1.812 1.168-.344.855-.04 1.84.722 2.347l.051.035a10.05 10.05 0 0 0 6.527 1.625c1.68-.156 4.063-.414 5.872-.734a7.713 7.713 0 0 1 3.124.078l2.145.508.098.031c.468.149.953.219 1.43.219 1.097 0 2.156-.379 2.874-1.078.848-.82 1.172-2.012.946-3.41zM9.074 11.168c.086-.035.168-.074.25-.113.2-.09.39-.184.578-.278.07-.035.137-.07.203-.105.149-.078.297-.156.442-.238.066-.036.137-.075.203-.114.184-.105.363-.207.535-.312.043-.024.082-.051.121-.074l.469-.29c.035-.023.07-.042.105-.066.153-.098.301-.191.446-.285l1.113 1.047c.316.297.297.68.18.933a.801.801 0 0 1-.836.461l-3.965-.496c.055-.023.105-.047.156-.07zm-7.754 3.09a1.116 1.116 0 0 1-.488-.926H.84c.09 0 .18-.027.254-.086a.416.416 0 0 0 .07-.582l-.047-.07c.203-.211.492-.336.836-.336h3.18c.515 0 1.027-.13 1.48-.238.196-.051.383-.11.57-.165l5.598.7c.07.008.14.011.215.011a1.61 1.61 0 0 0 1.469-.937 1.61 1.61 0 0 0-.36-1.89l-.957-.903c.43-.27.825-.5 1.18-.652a.754.754 0 0 1 .711.058l1.746 1.945h2.02a3.476 3.476 0 0 0 2.683-1.425.226.226 0 0 1 .215-.094c.04.008.137.031.18.148l1.008 2.672c.03.075.066.149.086.23.054.192.097.376.128.555l-.007.043a.412.412 0 0 0 .058.313c.02.187.028.367.024.539a.415.415 0 0 0-.48.16 1.818 1.818 0 0 1-.212.274.413.413 0 0 0 .305.691c.05 0 .102-.012.148-.031-.128.293-.3.554-.53.773-.81.785-2.24 1.059-3.477.664l-2.305-.554a8.43 8.43 0 0 0-1.93-.223c-.504 0-1.015.043-1.527.137-1.781.316-4.14.566-5.805.722a9.193 9.193 0 0 1-5.996-1.492zm0 0"/>
    <path d="M8.602 14.152c-.137.02-.274.036-.407.051a.414.414 0 1 0 .043.824c.016 0 .032 0 .047-.004.14-.015.277-.03.418-.05a.413.413 0 0 0-.101-.82zm0 0M6.992 14.293c-.133.004-.265.008-.406.008a.412.412 0 0 0-.41.418c0 .226.183.41.414.41.144 0 .285-.004.422-.008a.414.414 0 1 0-.02-.828zm0 0M5.379 14.258a13.74 13.74 0 0 1-.399-.04.414.414 0 1 0-.09.824c.145.017.286.028.426.04h.032a.413.413 0 0 0 .031-.824zm0 0M3.8 14.031c-.128-.027-.257-.062-.386-.094a.41.41 0 0 0-.504.293.41.41 0 0 0 .293.504c.137.04.277.075.418.106a.417.417 0 0 0 .496-.316.415.415 0 0 0-.316-.493zm0 0M10.227 13.926l-.407.062a.414.414 0 0 0-.351.469.415.415 0 0 0 .41.352c.02 0 .039 0 .059-.004l.414-.059a.418.418 0 0 0 .347-.473.418.418 0 0 0-.472-.347zm0 0M2.324 13.54a3.8 3.8 0 0 1-.332-.177.414.414 0 1 0-.426.711c.13.074.262.145.399.211a.41.41 0 0 0 .55-.191.416.416 0 0 0-.19-.555zm0 0M21.629 14.148c-.113.036-.23.067-.352.09a.42.42 0 0 0-.324.489.417.417 0 0 0 .488.324c.157-.031.309-.07.45-.117a.418.418 0 0 0 .261-.528.412.412 0 0 0-.523-.258zm0 0M18.563 14.098c-.137-.024-.27-.051-.403-.078a.414.414 0 1 0-.164.812c.137.027.274.055.414.078a.41.41 0 0 0 .48-.328.414.414 0 0 0-.328-.484zm0 0M11.879 13.695c-.14.02-.277.04-.418.055a.414.414 0 0 0 .059.824c.015 0 .035 0 .054-.004.133-.02.27-.035.406-.05a.416.416 0 0 0-.101-.825zm0 0M20.145 14.305a6.561 6.561 0 0 1-.391-.028.409.409 0 0 0-.453.371.415.415 0 0 0 .37.454c.145.011.29.023.434.03h.02a.418.418 0 0 0 .414-.394.417.417 0 0 0-.394-.433zm0 0M16.945 13.766c-.14-.028-.277-.055-.41-.079a.414.414 0 1 0-.152.813c.129.023.262.05.398.078a.41.41 0 0 0 .488-.324.42.42 0 0 0-.324-.488zm0 0M15.254 13.512l-.125-.008c-.102-.004-.207-.004-.309-.008-.238-.02-.418.184-.418.41-.004.23.18.414.407.418.097.004.195.004.293.008l.101.004h.024a.411.411 0 1 0 .027-.824zm0 0M13.547 13.531c-.14.012-.281.02-.418.031a.416.416 0 1 0 .031.828c.012 0 .024 0 .035-.003.137-.012.27-.02.407-.028a.418.418 0 0 0 .386-.441.416.416 0 0 0-.441-.387zm0 0"/>
</svg>
